X: 307
T:Sweets of May
% Nottingham Music Database
P:AABBCC
S:Kevin Briggs, via EF
M:6/8
K:G
P:A
|:d/2c/2|"G"B2G "D7"AFD|"G"GAG "D7"Gdc|"G"B2G GAB|"C"cBc "D7"d2c|
"G"B2G "D7"AFD|"G"GAG "D7"Gdc|"G"B2G "D7"AFD|"G"G3 -G2:|
P:B
|:A|"Am"ABA A2G|"Em"E2F G2"E"^G|"Am"ABA c2d|"Dm"e2d "E7"c2B|
"Am"ABA A2G|"Em"E2F G2"E"^G|"Am"A2A "G"BAG|"Am"A3 -A2:|
P:C
|:(3A/2B/2c/2|"D"d3 dcd|"D"D3 DED|"Am"c3 cBc|"D7"D3 DEF|"G"G2D "D7/a"G2A|\
"G/b"B2G "C"B2c|"D7"d2D DEF|"G"G3 -G2:|<end>
<start>
